dist/images/ico-photo.svg

<svg xmlns="http://www.w3.org/2000/svg" xmlns:xlink="http://www.w3.org/1999/xlink" preserveAspectRatio="none" width="120" height="90" viewBox="0 0 120 90"><defs><path fill="#ee5624" d="M116.95 27.2q0-15-15-15h-85q-15 0-15 15v46.25q0 15 15 15h85q15 0 15-15V27.2m-11.5 24q0 10.65-7.55 18.2-7.55 7.55-18.2 7.55-10.65 0-18.2-7.55-7.55-7.55-7.55-18.2 0-10.65 7.55-18.2 7.55-7.55 18.2-7.55 10.65 0 18.2 7.55 7.55 7.55 7.55 18.2M41.2 31.55v.05q0 2.3-1.65 3.95-1.65 1.65-3.95 1.65H23.3q-2.3 0-3.95-1.65-1.65-1.65-1.65-3.95v-.05q0-2.3 1.65-3.95 1.65-1.65 3.95-1.65h12.3q2.3 0 3.95 1.65 1.65 1.65 1.65 3.95z" id="a"/><path fill="#ee5624" d="M38.7 14.7q0-3.95-2.8-6.75-2.75-2.75-6.7-2.75t-6.75 2.75q-2.75 2.8-2.75 6.75t2.75 6.7q2.8 2.8 6.75 2.8t6.7-2.8q2.8-2.75 2.8-6.7m63 1.5q0-6.2-4.4-10.6-4.4-4.4-10.6-4.4h-15q-6.2 0-10.6 4.4-4.4 4.4-4.4 10.6v1q0 1 .15 2h44.75q.1-1 .1-2v-1z" id="b"/><path fill="#ee5624" d="M94.6 66.1q6.1-6.05 6.1-14.65 0-8.6-6.1-14.7-6.05-6.05-14.65-6.05-8.6 0-14.7 6.05-6.05 6.1-6.05 14.7t6.05 14.65q6.1 6.1 14.7 6.1t14.65-6.1m-8.25-28.45q2.55 0 4.35 1.8 1.8 1.8 1.8 4.35t-1.8 4.35q-1.8 1.8-4.35 1.8T82 48.15q-1.8-1.8-1.8-4.35t1.8-4.35q1.8-1.8 4.35-1.8z" id="c"/></defs><use xlink:href="#a"/><use xlink:href="#b"/><use xlink:href="#c"/></svg>

<svg xmlns="http://www.w3.org/2000/svg" version="1.1" xmlns:xlink="http://www.w3.org/1999/xlink" preserveAspectRatio="none" x="0px" y="0px" width="120px" height="90px" viewBox="0 0 120 90">
<defs>
<g id="Layer3_0_FILL">
<path fill="#ee5624" stroke="none" d="
M 116.95 27.2
Q 116.95 12.2 101.95 12.2
L 16.95 12.2
Q 1.95 12.2 1.95 27.2
L 1.95 73.45
Q 1.95 88.45 16.95 88.45
L 101.95 88.45
Q 116.95 88.45 116.95 73.45
L 116.95 27.2
M 105.45 51.2
Q 105.45 61.85 97.9 69.4 90.35 76.95 79.7 76.95 69.05 76.95 61.5 69.4 53.95 61.85 53.95 51.2 53.95 40.55 61.5 33 69.05 25.45 79.7 25.45 90.35 25.45 97.9 33 105.45 40.55 105.45 51.2
M 41.2 31.55
L 41.2 31.6
Q 41.2 33.9 39.55 35.55 37.9 37.2 35.6 37.2
L 23.3 37.2
Q 21 37.2 19.35 35.55 17.7 33.9 17.7 31.6
L 17.7 31.55
Q 17.7 29.25 19.35 27.6 21 25.95 23.3 25.95
L 35.6 25.95
Q 37.9 25.95 39.55 27.6 41.2 29.25 41.2 31.55 Z"/>
</g>

<g id="Layer2_0_FILL">
<path fill="#ee5624" stroke="none" d="
M 38.7 14.7
Q 38.7 10.75 35.9 7.95 33.15 5.2 29.2 5.2 25.25 5.2 22.45 7.95 19.7 10.75 19.7 14.7 19.7 18.65 22.45 21.4 25.25 24.2 29.2 24.2 33.15 24.2 35.9 21.4 38.7 18.65 38.7 14.7
M 101.7 16.2
Q 101.7 10 97.3 5.6 92.9 1.2 86.7 1.2
L 71.7 1.2
Q 65.5 1.2 61.1 5.6 56.7 10 56.7 16.2
L 56.7 17.2
Q 56.7 18.2 56.85 19.2
L 101.6 19.2
Q 101.7 18.2 101.7 17.2
L 101.7 16.2 Z"/>
</g>

<g id="Layer0_0_FILL">
<path fill="#ee5624" stroke="none" d="
M 94.6 66.1
Q 100.7 60.05 100.7 51.45 100.7 42.85 94.6 36.75 88.55 30.7 79.95 30.7 71.35 30.7 65.25 36.75 59.2 42.85 59.2 51.45 59.2 60.05 65.25 66.1 71.35 72.2 79.95 72.2 88.55 72.2 94.6 66.1
M 86.35 37.65
Q 88.9 37.65 90.7 39.45 92.5 41.25 92.5 43.8 92.5 46.35 90.7 48.15 88.9 49.95 86.35 49.95 83.8 49.95 82 48.15 80.2 46.35 80.2 43.8 80.2 41.25 82 39.45 83.8 37.65 86.35 37.65 Z"/>
</g>
</defs>

<g transform="matrix( 1, 0, 0, 1, 0,0) ">
<use xlink:href="#Layer3_0_FILL"/>
</g>

<g transform="matrix( 1, 0, 0, 1, 0,0) ">
<use xlink:href="#Layer2_0_FILL"/>
</g>

<g transform="matrix( 1, 0, 0, 1, 0,0) ">
<use xlink:href="#Layer0_0_FILL"/>
</g>
</svg>
